X: 5414
T: Bulgarian Hopscotch
R: slip jig
M: 9/8
K: Eminor
e2 B2 e2 B2E|B(c-c)B BA B2B|FG A2 AD GAB|A2 G(F-F)E B2B|
e2 B2 fg f2e|e(d-d)c BA B2B|FG A2 AD GAB|A2 G(F-F)D E2E:|
EB, Ec BA B2B|GB, GB AG A2A|FG A2 AD GAB|A2 G(F-F)E B2B|
^cd d=c cB ABc|de B2 BG A2A|FG A2 AD GAB|A2 G(F-F)D E2E:|

